file/gucci.svg

<svg clip-rule="evenodd" fill-rule="evenodd" stroke-linejoin="round" stroke-miterlimit="1.41421" viewBox="0 0 560 400" xmlns="http://www.w3.org/2000/svg"><path d="m116.792 90.018c0 20.504-16.634 37.138-37.138 37.138-5.907 0-11.474-1.357-16.498-3.87-4.957 2.445-10.592 3.87-16.43 3.87-20.505 0-37.139-16.634-37.139-37.138s16.634-37.138 37.138-37.138c5.907 0 11.474 1.358 16.43 3.802 4.957-2.444 10.592-3.802 16.499-3.802 20.504 0 37.138 16.634 37.138 37.138zm-65.178-9.98h-7.672c2.009-7.23 6.15-13.691 11.881-18.535-2.925-.902-5.969-1.359-9.03-1.358-16.43 0-29.805 13.375-29.805 29.805s13.375 29.806 29.805 29.806c3.123 0 6.11-.475 8.894-1.358-7.4-6.178-12.22-15.276-12.967-25.46h17.652v7.264l-8.623.136c2.241 5.975 6.247 11 11.475 14.462 5.227-3.463 9.233-8.487 11.474-14.462l-8.623-.136v-7.264h17.653c-.815 10.184-5.703 19.214-13.104 25.392 2.852.883 5.907 1.426 9.03 1.426 16.498.068 29.806-13.24 29.806-29.738 0-16.43-13.376-29.805-29.806-29.805-3.123 0-6.178.475-8.962 1.358 5.703 4.752 9.845 11.134 11.881 18.467h-7.672c-2.155-6.12-6.258-11.369-11.677-14.937-5.364 3.53-9.438 8.759-11.61 14.937zm2.746-79.439c-.253.127-.507.292-.76.495-.254.203-.394.583-.419 1.141-.023.609-.049 1.382-.076 2.32 0 .913-.011 1.953-.034 3.12 0 1.166-.012 2.434-.035 3.803v4.26c-.023 1.648-.226 3.055-.609 4.222-.38 1.167-.887 2.143-1.521 2.928-.609.787-1.293 1.408-2.054 1.864-.735.457-1.471.799-2.206 1.027-.71.253-1.382.406-2.016.457-.634.076-1.129.114-1.484.114-1.445 0-2.84-.19-4.184-.57-1.344-.355-2.523-.939-3.537-1.75-1.014-.812-1.825-1.864-2.434-3.157s-.913-2.866-.913-4.717v-8.254c0-1.217-.012-2.307-.035-3.27 0-.989-.012-1.788-.035-2.397-.023-.558-.162-.938-.418-1.14-.253-.203-.507-.369-.76-.496l.034-.19c.127.023.33.049.61.076.304.023.608.049.912.076.33 0 .647.012.95.035h1.37c.305-.023.622-.035.951-.035.33-.023.634-.049.913-.076.304-.023.519-.049.646-.076l.035.19c-.279.127-.545.292-.799.495-.228.203-.355.583-.38 1.141-.023.609-.049 1.407-.076 2.396v11.525c0 2.764.647 4.805 1.94 6.124s3.208 1.978 5.743 1.978c.735 0 1.572-.089 2.51-.267.939-.203 1.814-.608 2.625-1.217.837-.609 1.534-1.471 2.092-2.586.583-1.116.875-2.599.875-4.45 0-2.003-.012-3.715-.035-5.135 0-1.445-.012-2.675-.035-3.69 0-1.04-.012-1.927-.035-2.662s-.048-1.407-.076-2.016c-.023-.558-.162-.938-.418-1.141-.253-.203-.507-.368-.76-.495l.034-.19c.279.051.596.102.951.153.355.023.685.034.99.034.278 0 .595-.011.95-.034.38-.051.71-.102.989-.153zm-27.55 14.226c-.279.127-.545.291-.798.494s-.38.482-.38.837v4.679c-1.218 1.749-2.778 3.106-4.68 4.07-1.901.963-4.006 1.445-6.313 1.445-1.953 0-3.817-.317-5.592-.951s-3.334-1.522-4.678-2.663c-1.344-1.167-2.409-2.561-3.195-4.183-.786-1.649-1.179-3.475-1.179-5.478s.393-3.816 1.18-5.439c.785-1.648 1.85-3.055 3.194-4.222s2.903-2.054 4.678-2.662c1.775-.634 3.639-.951 5.592-.951.938 0 1.876.076 2.814.228.939.152 1.839.393 2.7.723.888.304 1.712.697 2.473 1.179.761.457 1.433.989 2.016 1.597l.153 4.032-.229.076c-.887-1.927-2.154-3.461-3.803-4.602-1.623-1.141-3.665-1.712-6.124-1.712-1.369 0-2.675.292-3.918.875-1.242.558-2.332 1.357-3.27 2.396-.913 1.015-1.649 2.245-2.207 3.69s-.837 3.043-.837 4.792c0 1.724.267 3.309.8 4.754.557 1.446 1.292 2.689 2.205 3.728.939 1.014 2.029 1.813 3.271 2.396 1.243.558 2.561.837 3.956.837 2.637 0 4.894-.507 6.77-1.521v-7.113c0-.355-.139-.634-.418-.837-.253-.203-.507-.368-.76-.495l.034-.19c.127.023.355.049.685.076.33.023.672.049 1.027.076h3.271c.305-.023.596-.049.875-.076.279-.023.494-.049.646-.076zm83.816-7.265-.228.076c-.887-1.927-2.155-3.462-3.804-4.603-1.623-1.141-3.664-1.711-6.123-1.711-1.369 0-2.675.292-3.918.875-1.243.557-2.333 1.356-3.271 2.396-.913 1.014-1.649 2.244-2.206 3.69-.558 1.445-.837 3.042-.837 4.792 0 1.749.279 3.347.837 4.792s1.293 2.688 2.206 3.728c.938 1.014 2.028 1.8 3.27 2.358 1.243.558 2.55.837 3.919.837 2.434 0 4.412-.38 5.933-1.141 1.547-.787 2.853-1.979 3.918-3.576l.228.076-.076 2.434c-.583.609-1.255 1.154-2.016 1.636-.76.457-1.584.85-2.472 1.18-.862.303-1.762.531-2.7.684-.939.177-1.877.266-2.815.266-1.953 0-3.816-.317-5.591-.95-1.775-.635-3.335-1.522-4.679-2.663-1.344-1.167-2.409-2.561-3.195-4.184-.786-1.648-1.179-3.474-1.179-5.477s.393-3.817 1.18-5.44c.785-1.648 1.85-3.055 3.194-4.221 1.344-1.167 2.904-2.054 4.679-2.663 1.775-.633 3.638-.95 5.59-.95.939 0 1.877.076 2.816.227.938.153 1.838.394 2.7.723.887.305 1.711.698 2.472 1.18.761.456 1.433.988 2.016 1.597zm-28.666 0-.228.076c-.888-1.927-2.156-3.462-3.804-4.603-1.623-1.141-3.664-1.711-6.124-1.711-1.369 0-2.674.292-3.917.875-1.243.557-2.333 1.356-3.271 2.396-.913 1.014-1.649 2.244-2.206 3.69-.558 1.445-.837 3.042-.837 4.792 0 1.749.279 3.347.837 4.792.557 1.445 1.293 2.688 2.206 3.728.938 1.014 2.028 1.8 3.27 2.358 1.243.558 2.549.837 3.918.837 2.435 0 4.413-.38 5.934-1.141 1.547-.787 2.853-1.979 3.918-3.576l.228.076-.076 2.434c-.583.609-1.255 1.154-2.016 1.636-.76.457-1.584.85-2.472 1.18-.862.303-1.762.531-2.7.684-.939.177-1.877.266-2.815.266-1.953 0-3.817-.317-5.592-.95-1.775-.635-3.334-1.522-4.678-2.663-1.344-1.167-2.409-2.561-3.195-4.184-.787-1.648-1.18-3.474-1.18-5.477s.393-3.817 1.18-5.44c.787-1.648 1.852-3.055 3.195-4.221 1.344-1.167 2.903-2.054 4.678-2.663 1.775-.633 3.639-.95 5.592-.95.938 0 1.876.076 2.814.227.939.153 1.839.394 2.7.723.888.305 1.712.698 2.473 1.18.761.456 1.433.988 2.016 1.597zm34.993-1.211c0-.837-.012-1.573-.035-2.207 0-.659-.012-1.293-.035-1.901-.023-.558-.163-.938-.418-1.141-.253-.229-.507-.406-.76-.533l.034-.152c.152.051.367.089.646.114.305 0 .609.012.913.035.33.023.647.035.951.035h1.331c.304-.023.621-.035.95-.035.331-.023.635-.049.914-.076.304-.023.519-.049.646-.076l.035.153c-.279.127-.545.304-.799.532-.228.203-.355.583-.38 1.14-.023.609-.049 1.244-.076 1.903v17.877c.023.659.049 1.292.076 1.901.023.558.149.938.38 1.141.253.203.52.368.799.495l-.035.148c-.127-.023-.342-.048-.646-.075-.279 0-.583-.012-.913-.035-.33 0-.647-.011-.951-.034h-2.281c-.305.023-.609.048-.914.075-.279.023-.494.049-.646.076l-.035-.152c.253-.127.507-.292.76-.495.254-.203.394-.583.419-1.141.023-.609.035-1.243.035-1.902.023-.659.035-1.407.035-2.244z" transform="matrix(2.12006 0 0 2.12006 150.549 65.4219)"/></svg>

<?xml version="1.0" encoding="UTF-8" standalone="no"?>
<!DOCTYPE svg PUBLIC "-//W3C//DTD SVG 1.1//EN" "http://www.w3.org/Graphics/SVG/1.1/DTD/svg11.dtd">
<svg width="100%" height="100%" viewBox="0 0 560 400" version="1.1" xmlns="http://www.w3.org/2000/svg" xmlns:xlink="http://www.w3.org/1999/xlink" xml:space="preserve" xmlns:serif="http://www.serif.com/" style="fill-rule:evenodd;clip-rule:evenodd;stroke-linejoin:round;stroke-miterlimit:1.41421;">
    <g id="path855" transform="matrix(2.12006,0,0,2.12006,150.549,65.4219)">
        <path d="M116.792,90.018C116.792,110.522 100.158,127.156 79.654,127.156C73.747,127.156 68.18,125.799 63.156,123.286C58.199,125.731 52.564,127.156 46.726,127.156C26.221,127.156 9.587,110.522 9.587,90.018C9.587,69.514 26.221,52.88 46.725,52.88C52.632,52.88 58.199,54.238 63.155,56.682C68.112,54.238 73.747,52.88 79.654,52.88C100.158,52.88 116.792,69.514 116.792,90.018ZM51.614,80.038L43.942,80.038C45.951,72.808 50.092,66.347 55.823,61.503C52.898,60.601 49.854,60.144 46.793,60.145C30.363,60.145 16.988,73.52 16.988,89.95C16.988,106.38 30.363,119.756 46.793,119.756C49.916,119.756 52.903,119.281 55.687,118.398C48.287,112.22 43.467,103.122 42.72,92.938L60.372,92.938L60.372,100.202L51.749,100.338C53.99,106.313 57.996,111.338 63.224,114.8C68.451,111.337 72.457,106.313 74.698,100.338L66.075,100.202L66.075,92.938L83.728,92.938C82.913,103.122 78.025,112.152 70.624,118.33C73.476,119.213 76.531,119.756 79.654,119.756C96.152,119.824 109.46,106.516 109.46,90.018C109.46,73.588 96.084,60.213 79.654,60.213C76.531,60.213 73.476,60.688 70.692,61.571C76.395,66.323 80.537,72.705 82.573,80.038L74.901,80.038C72.746,73.918 68.643,68.669 63.224,65.101C57.86,68.631 53.786,73.86 51.614,80.038ZM54.36,0.599C54.107,0.726 53.853,0.891 53.6,1.094C53.346,1.297 53.206,1.677 53.181,2.235C53.158,2.844 53.132,3.617 53.105,4.555C53.105,5.468 53.094,6.508 53.071,7.675C53.071,8.841 53.059,10.109 53.036,11.478L53.036,15.738C53.013,17.386 52.81,18.793 52.427,19.96C52.047,21.127 51.54,22.103 50.906,22.888C50.297,23.675 49.613,24.296 48.852,24.752C48.117,25.209 47.381,25.551 46.646,25.779C45.936,26.032 45.264,26.185 44.63,26.236C43.996,26.312 43.501,26.35 43.146,26.35C41.701,26.35 40.306,26.16 38.962,25.78C37.618,25.425 36.439,24.841 35.425,24.03C34.411,23.218 33.6,22.166 32.991,20.873C32.382,19.58 32.078,18.007 32.078,16.156L32.078,7.902C32.078,6.685 32.066,5.595 32.043,4.632C32.043,3.643 32.031,2.844 32.008,2.235C31.985,1.677 31.846,1.297 31.59,1.095C31.337,0.892 31.083,0.726 30.83,0.599L30.864,0.409C30.991,0.432 31.194,0.458 31.474,0.485C31.778,0.508 32.082,0.534 32.386,0.561C32.716,0.561 33.033,0.573 33.336,0.596L34.706,0.596C35.011,0.573 35.328,0.561 35.657,0.561C35.987,0.538 36.291,0.512 36.57,0.485C36.874,0.462 37.089,0.436 37.216,0.409L37.251,0.599C36.972,0.726 36.706,0.891 36.452,1.094C36.224,1.297 36.097,1.677 36.072,2.235C36.049,2.844 36.023,3.642 35.996,4.631L35.996,16.156C35.996,18.92 36.643,20.961 37.936,22.28C39.229,23.599 41.144,24.258 43.679,24.258C44.414,24.258 45.251,24.169 46.189,23.991C47.128,23.788 48.003,23.383 48.814,22.774C49.651,22.165 50.348,21.303 50.906,20.188C51.489,19.072 51.781,17.589 51.781,15.738C51.781,13.735 51.769,12.023 51.746,10.603C51.746,9.158 51.734,7.928 51.711,6.913C51.711,5.873 51.699,4.986 51.676,4.251C51.653,3.516 51.628,2.844 51.6,2.235C51.577,1.677 51.438,1.297 51.182,1.094C50.929,0.891 50.675,0.726 50.422,0.599L50.456,0.409C50.735,0.46 51.052,0.511 51.407,0.562C51.762,0.585 52.092,0.596 52.397,0.596C52.675,0.596 52.992,0.585 53.347,0.562C53.727,0.511 54.057,0.46 54.336,0.409L54.36,0.599ZM26.81,14.825C26.531,14.952 26.265,15.116 26.012,15.319C25.759,15.522 25.632,15.801 25.632,16.156L25.632,20.835C24.414,22.584 22.854,23.941 20.952,24.905C19.051,25.868 16.946,26.35 14.639,26.35C12.686,26.35 10.822,26.033 9.047,25.399C7.272,24.765 5.713,23.877 4.369,22.736C3.025,21.569 1.96,20.175 1.174,18.553C0.388,16.904 -0.005,15.078 -0.005,13.075C-0.005,11.072 0.388,9.259 1.175,7.636C1.96,5.988 3.025,4.581 4.369,3.414C5.713,2.247 7.272,1.36 9.047,0.752C10.822,0.118 12.686,-0.199 14.639,-0.199C15.577,-0.199 16.515,-0.123 17.453,0.029C18.392,0.181 19.292,0.422 20.153,0.752C21.041,1.056 21.865,1.449 22.626,1.931C23.387,2.388 24.059,2.92 24.642,3.528L24.795,7.56L24.566,7.636C23.679,5.709 22.412,4.175 20.763,3.034C19.14,1.893 17.098,1.322 14.639,1.322C13.27,1.322 11.964,1.614 10.721,2.197C9.479,2.755 8.389,3.554 7.451,4.593C6.538,5.608 5.802,6.838 5.244,8.283C4.686,9.728 4.407,11.326 4.407,13.075C4.407,14.799 4.674,16.384 5.207,17.829C5.764,19.275 6.499,20.518 7.412,21.557C8.351,22.571 9.441,23.37 10.683,23.953C11.926,24.511 13.244,24.79 14.639,24.79C17.276,24.79 19.533,24.283 21.409,23.269L21.409,16.156C21.409,15.801 21.27,15.522 20.991,15.319C20.738,15.116 20.484,14.951 20.231,14.824L20.265,14.634C20.392,14.657 20.62,14.683 20.95,14.71C21.28,14.733 21.622,14.759 21.977,14.786L25.248,14.786C25.553,14.763 25.844,14.737 26.123,14.71C26.402,14.687 26.617,14.661 26.769,14.634L26.81,14.825ZM110.626,7.56L110.398,7.636C109.511,5.709 108.243,4.174 106.594,3.033C104.971,1.892 102.93,1.322 100.471,1.322C99.102,1.322 97.796,1.614 96.553,2.197C95.31,2.754 94.22,3.553 93.282,4.593C92.369,5.607 91.633,6.837 91.076,8.283C90.518,9.728 90.239,11.325 90.239,13.075C90.239,14.824 90.518,16.422 91.076,17.867C91.634,19.312 92.369,20.555 93.282,21.595C94.22,22.609 95.31,23.395 96.552,23.953C97.795,24.511 99.102,24.79 100.471,24.79C102.905,24.79 104.883,24.41 106.404,23.649C107.951,22.862 109.257,21.67 110.322,20.073L110.55,20.149L110.474,22.583C109.891,23.192 109.219,23.737 108.458,24.219C107.698,24.676 106.874,25.069 105.986,25.399C105.124,25.702 104.224,25.93 103.286,26.083C102.347,26.26 101.409,26.349 100.471,26.349C98.518,26.349 96.655,26.032 94.88,25.399C93.105,24.764 91.545,23.877 90.201,22.736C88.857,21.569 87.792,20.175 87.006,18.552C86.22,16.904 85.827,15.078 85.827,13.075C85.827,11.072 86.22,9.258 87.007,7.635C87.792,5.987 88.857,4.58 90.201,3.414C91.545,2.247 93.105,1.36 94.88,0.751C96.655,0.118 98.518,-0.199 100.47,-0.199C101.409,-0.199 102.347,-0.123 103.286,0.028C104.224,0.181 105.124,0.422 105.986,0.751C106.873,1.056 107.697,1.449 108.458,1.931C109.219,2.387 109.891,2.919 110.474,3.528L110.626,7.56ZM81.96,7.56L81.732,7.636C80.844,5.709 79.576,4.174 77.928,3.033C76.305,1.892 74.264,1.322 71.804,1.322C70.435,1.322 69.13,1.614 67.887,2.197C66.644,2.754 65.554,3.553 64.616,4.593C63.703,5.607 62.967,6.837 62.41,8.283C61.852,9.728 61.573,11.325 61.573,13.075C61.573,14.824 61.852,16.422 62.41,17.867C62.967,19.312 63.703,20.555 64.616,21.595C65.554,22.609 66.644,23.395 67.886,23.953C69.129,24.511 70.435,24.79 71.804,24.79C74.239,24.79 76.217,24.41 77.738,23.649C79.285,22.862 80.591,21.67 81.656,20.073L81.884,20.149L81.808,22.583C81.225,23.192 80.553,23.737 79.792,24.219C79.032,24.676 78.208,25.069 77.32,25.399C76.458,25.702 75.558,25.93 74.62,26.083C73.681,26.26 72.743,26.349 71.805,26.349C69.852,26.349 67.988,26.032 66.213,25.399C64.438,24.764 62.879,23.877 61.535,22.736C60.191,21.569 59.126,20.175 58.34,18.552C57.553,16.904 57.16,15.078 57.16,13.075C57.16,11.072 57.553,9.258 58.34,7.635C59.127,5.987 60.192,4.58 61.535,3.414C62.879,2.247 64.438,1.36 66.213,0.751C67.988,0.118 69.852,-0.199 71.805,-0.199C72.743,-0.199 73.681,-0.123 74.619,0.028C75.558,0.181 76.458,0.422 77.319,0.751C78.207,1.056 79.031,1.449 79.792,1.931C80.553,2.387 81.225,2.919 81.808,3.528L81.96,7.56ZM116.953,6.349C116.953,5.512 116.941,4.776 116.918,4.142C116.918,3.483 116.906,2.849 116.883,2.241C116.86,1.683 116.72,1.303 116.465,1.1C116.212,0.871 115.958,0.694 115.705,0.567L115.739,0.415C115.891,0.466 116.106,0.504 116.385,0.529C116.69,0.529 116.994,0.541 117.298,0.564C117.628,0.587 117.945,0.599 118.249,0.599L119.58,0.599C119.884,0.576 120.201,0.564 120.53,0.564C120.861,0.541 121.165,0.515 121.444,0.488C121.748,0.465 121.963,0.439 122.09,0.412L122.125,0.565C121.846,0.692 121.58,0.869 121.326,1.097C121.098,1.3 120.971,1.68 120.946,2.237C120.923,2.846 120.897,3.481 120.87,4.14L120.87,22.017C120.893,22.676 120.919,23.309 120.946,23.918C120.969,24.476 121.095,24.856 121.326,25.059C121.579,25.262 121.846,25.427 122.125,25.554L122.09,25.702C121.963,25.679 121.748,25.654 121.444,25.627C121.165,25.627 120.861,25.615 120.531,25.592C120.201,25.592 119.884,25.581 119.58,25.558L117.299,25.558C116.994,25.581 116.69,25.606 116.385,25.633C116.106,25.656 115.891,25.682 115.739,25.709L115.704,25.557C115.957,25.43 116.211,25.265 116.464,25.062C116.718,24.859 116.858,24.479 116.883,23.921C116.906,23.312 116.918,22.678 116.918,22.019C116.941,21.36 116.953,20.612 116.953,19.775L116.953,6.349Z"/>
    </g>
</svg>
